img/play_button.svg

<svg xmlns="http://www.w3.org/2000/svg" width="123" height="123" fill="none"><g filter="url(#a)"><circle cx="61.2483" cy="61.6689" r="60.9332" fill="#07F2B8"/></g><g filter="url(#b)"><circle cx="61.2483" cy="61.6689" r="56.3053" fill="url(#c)"/></g><g filter="url(#d)"><path fill="#BCBCBC" d="M85.5923 58.3449c2.3665 1.5842 2.3665 5.0639 0 6.648L56.868 84.2207c-2.6577 1.7791-6.2251-.1258-6.2251-3.324V42.4411c0-3.1982 3.5674-5.103 6.2251-3.324l28.7243 19.2278Z"/></g><path stroke="#B7B7B7" stroke-width="2" d="M86.1485 65.8239c2.9582-1.9802 2.9582-6.3298 0-8.31L57.4242 38.2861c-3.3221-2.2238-7.7813.1573-7.7813 4.155v38.4556c0 3.9978 4.4592 6.3788 7.7813 4.155l28.7243-19.2278Z"/><defs><filter id="a" width="122.866" height="124.666" x=".3152" y="-.6643" color-interpolation-filters="sRGB" filterUnits="userSpaceOnUse"><feFlood flood-opacity="0" result="BackgroundImageFix"/><feBlend in="SourceGraphic" in2="BackgroundImageFix" result="shape"/><feColorMatrix in="SourceAlpha" result="hardAlpha" values="0 0 0 0 0 0 0 0 0 0 0 0 0 0 0 0 0 0 127 0"/><feOffset dx="1" dy="2"/><feGaussianBlur stdDeviation=".7"/><feComposite in2="hardAlpha" k2="-1" k3="1" operator="arithmetic"/><feColorMatrix values="0 0 0 0 1 0 0 0 0 1 0 0 0 0 1 0 0 0 1 0"/><feBlend in2="shape" result="effect1_innerShadow_2014_147"/><feColorMatrix in="SourceAlpha" result="hardAlpha" values="0 0 0 0 0 0 0 0 0 0 0 0 0 0 0 0 0 0 127 0"/><feOffset dy="-2"/><feGaussianBlur stdDeviation=".7"/><feComposite in2="hardAlpha" k2="-1" k3="1" operator="arithmetic"/><feColorMatrix values="0 0 0 0 0 0 0 0 0 0 0 0 0 0 0 0 0 0 0.25 0"/><feBlend in2="effect1_innerShadow_2014_147" result="effect2_innerShadow_2014_147"/></filter><filter id="b" width="116.111" height="117.411" x="3.443" y="3.8636" color-interpolation-filters="sRGB" filterUnits="userSpaceOnUse"><feFlood flood-opacity="0" result="BackgroundImageFix"/><feBlend in="SourceGraphic" in2="BackgroundImageFix" result="shape"/><feColorMatrix in="SourceAlpha" result="hardAlpha" values="0 0 0 0 0 0 0 0 0 0 0 0 0 0 0 0 0 0 127 0"/><feOffset dx="2" dy="4"/><feGaussianBlur stdDeviation="1.65"/><feComposite in2="hardAlpha" k2="-1" k3="1" operator="arithmetic"/><feColorMatrix values="0 0 0 0 1 0 0 0 0 1 0 0 0 0 1 0 0 0 1 0"/><feBlend in2="shape" result="effect1_innerShadow_2014_147"/><feColorMatrix in="SourceAlpha" result="hardAlpha" values="0 0 0 0 0 0 0 0 0 0 0 0 0 0 0 0 0 0 127 0"/><feOffset dx="-2" dy="-2"/><feGaussianBlur stdDeviation=".75"/><feComposite in2="hardAlpha" k2="-1" k3="1" operator="arithmetic"/><feColorMatrix values="0 0 0 0 0 0 0 0 0 0 0 0 0 0 0 0 0 0 0.25 0"/><feBlend in2="effect1_innerShadow_2014_147" result="effect2_innerShadow_2014_147"/></filter><filter id="d" width="40.7243" height="54.4758" x="48.6429" y="36.431" color-interpolation-filters="sRGB" filterUnits="userSpaceOnUse"><feFlood flood-opacity="0" result="BackgroundImageFix"/><feBlend in="SourceGraphic" in2="BackgroundImageFix" result="shape"/><feColorMatrix in="SourceAlpha" result="hardAlpha" values="0 0 0 0 0 0 0 0 0 0 0 0 0 0 0 0 0 0 127 0"/><feMorphology in="SourceAlpha" radius="1" result="effect1_innerShadow_2014_147"/><feOffset dy="5"/><feGaussianBlur stdDeviation="1.5"/><feComposite in2="hardAlpha" k2="-1" k3="1" operator="arithmetic"/><feColorMatrix values="0 0 0 0 0 0 0 0 0 0 0 0 0 0 0 0 0 0 0.25 0"/><feBlend in2="shape" result="effect1_innerShadow_2014_147"/></filter><linearGradient id="c" x1="41.9657" x2="79.374" y1="9.2201" y2="117.974" gradientUnits="userSpaceOnUse"><stop stop-color="#FBF8F8"/><stop offset="1" stop-color="#CECCCC"/></linearGradient></defs></svg>

<svg width="123" height="123" viewBox="0 0 123 123" fill="none" xmlns="http://www.w3.org/2000/svg">
<g filter="url(#filter0_ii_2014_147)">
<circle cx="61.2483" cy="61.6689" r="60.9332" fill="#07F2B8"/>
</g>
<g filter="url(#filter1_ii_2014_147)">
<circle cx="61.2483" cy="61.6689" r="56.3053" fill="url(#paint0_linear_2014_147)"/>
</g>
<g filter="url(#filter2_i_2014_147)">
<path d="M85.5923 58.3449C87.9588 59.9291 87.9588 63.4088 85.5923 64.9929L56.868 84.2207C54.2103 85.9998 50.6429 84.0949 50.6429 80.8967L50.6429 42.4411C50.6429 39.2429 54.2103 37.3381 56.868 39.1171L85.5923 58.3449Z" fill="#BCBCBC"/>
</g>
<path d="M86.1485 65.8239C89.1067 63.8437 89.1067 59.4941 86.1485 57.5139L57.4242 38.2861C54.1021 36.0623 49.6429 38.4434 49.6429 42.4411L49.6429 80.8967C49.6429 84.8945 54.1021 87.2755 57.4242 85.0517L86.1485 65.8239Z" stroke="#B7B7B7" stroke-width="2"/>
<defs>
<filter id="filter0_ii_2014_147" x="0.315155" y="-0.664252" width="122.866" height="124.666" filterUnits="userSpaceOnUse" color-interpolation-filters="sRGB">
<feFlood flood-opacity="0" result="BackgroundImageFix"/>
<feBlend mode="normal" in="SourceGraphic" in2="BackgroundImageFix" result="shape"/>
<feColorMatrix in="SourceAlpha" type="matrix" values="0 0 0 0 0 0 0 0 0 0 0 0 0 0 0 0 0 0 127 0" result="hardAlpha"/>
<feOffset dx="1" dy="2"/>
<feGaussianBlur stdDeviation="0.7"/>
<feComposite in2="hardAlpha" operator="arithmetic" k2="-1" k3="1"/>
<feColorMatrix type="matrix" values="0 0 0 0 1 0 0 0 0 1 0 0 0 0 1 0 0 0 1 0"/>
<feBlend mode="normal" in2="shape" result="effect1_innerShadow_2014_147"/>
<feColorMatrix in="SourceAlpha" type="matrix" values="0 0 0 0 0 0 0 0 0 0 0 0 0 0 0 0 0 0 127 0" result="hardAlpha"/>
<feOffset dy="-2"/>
<feGaussianBlur stdDeviation="0.7"/>
<feComposite in2="hardAlpha" operator="arithmetic" k2="-1" k3="1"/>
<feColorMatrix type="matrix" values="0 0 0 0 0 0 0 0 0 0 0 0 0 0 0 0 0 0 0.25 0"/>
<feBlend mode="normal" in2="effect1_innerShadow_2014_147" result="effect2_innerShadow_2014_147"/>
</filter>
<filter id="filter1_ii_2014_147" x="3.44299" y="3.86359" width="116.111" height="117.411" filterUnits="userSpaceOnUse" color-interpolation-filters="sRGB">
<feFlood flood-opacity="0" result="BackgroundImageFix"/>
<feBlend mode="normal" in="SourceGraphic" in2="BackgroundImageFix" result="shape"/>
<feColorMatrix in="SourceAlpha" type="matrix" values="0 0 0 0 0 0 0 0 0 0 0 0 0 0 0 0 0 0 127 0" result="hardAlpha"/>
<feOffset dx="2" dy="4"/>
<feGaussianBlur stdDeviation="1.65"/>
<feComposite in2="hardAlpha" operator="arithmetic" k2="-1" k3="1"/>
<feColorMatrix type="matrix" values="0 0 0 0 1 0 0 0 0 1 0 0 0 0 1 0 0 0 1 0"/>
<feBlend mode="normal" in2="shape" result="effect1_innerShadow_2014_147"/>
<feColorMatrix in="SourceAlpha" type="matrix" values="0 0 0 0 0 0 0 0 0 0 0 0 0 0 0 0 0 0 127 0" result="hardAlpha"/>
<feOffset dx="-2" dy="-2"/>
<feGaussianBlur stdDeviation="0.75"/>
<feComposite in2="hardAlpha" operator="arithmetic" k2="-1" k3="1"/>
<feColorMatrix type="matrix" values="0 0 0 0 0 0 0 0 0 0 0 0 0 0 0 0 0 0 0.25 0"/>
<feBlend mode="normal" in2="effect1_innerShadow_2014_147" result="effect2_innerShadow_2014_147"/>
</filter>
<filter id="filter2_i_2014_147" x="48.6429" y="36.431" width="40.7243" height="54.4758" filterUnits="userSpaceOnUse" color-interpolation-filters="sRGB">
<feFlood flood-opacity="0" result="BackgroundImageFix"/>
<feBlend mode="normal" in="SourceGraphic" in2="BackgroundImageFix" result="shape"/>
<feColorMatrix in="SourceAlpha" type="matrix" values="0 0 0 0 0 0 0 0 0 0 0 0 0 0 0 0 0 0 127 0" result="hardAlpha"/>
<feMorphology radius="1" operator="erode" in="SourceAlpha" result="effect1_innerShadow_2014_147"/>
<feOffset dy="5"/>
<feGaussianBlur stdDeviation="1.5"/>
<feComposite in2="hardAlpha" operator="arithmetic" k2="-1" k3="1"/>
<feColorMatrix type="matrix" values="0 0 0 0 0 0 0 0 0 0 0 0 0 0 0 0 0 0 0.25 0"/>
<feBlend mode="normal" in2="shape" result="effect1_innerShadow_2014_147"/>
</filter>
<linearGradient id="paint0_linear_2014_147" x1="41.9657" y1="9.22012" x2="79.374" y2="117.974" gradientUnits="userSpaceOnUse">
<stop stop-color="#FBF8F8"/>
<stop offset="1" stop-color="#CECCCC"/>
</linearGradient>
</defs>
</svg>
